optimized/24/outline/chart-bar-square.svg

<svg xmlns="http://www.w3.org/2000/svg" fill="none" viewBox="0 0 24 24">
  <path stroke-linecap="round" stroke-linejoin="round" d="M7.5 14.25V16.5M10.5 12V16.5M13.5 9.75V16.5M16.5 7.5V16.5M6 20.25H18C19.2426 20.25 20.25 19.2426 20.25 18V6C20.25 4.75736 19.2426 3.75 18 3.75H6C4.75736 3.75 3.75 4.75736 3.75 6V18C3.75 19.2426 4.75736 20.25 6 20.25Z"/>
</svg>

<svg xmlns="http://www.w3.org/2000/svg" fill="none" viewBox="0 0 24 24" stroke-width="1.5" stroke="currentColor" aria-hidden="true">
  <path stroke-linecap="round" stroke-linejoin="round" d="M7.5 14.25v2.25m3-4.5v4.5m3-6.75v6.75m3-9v9M6 20.25h12A2.25 2.25 0 0020.25 18V6A2.25 2.25 0 0018 3.75H6A2.25 2.25 0 003.75 6v12A2.25 2.25 0 006 20.25z"/>
</svg>
